X: 1
T: Market Chorus
O: Trad.
R: reel
Z: 2014 John Chambers <jc:trillian.mit.edu>
S: PDF image of set for The Triumph from George Meikle 2012
M: 4/4
L: 1/8
K: D
d2 |:\
"D"A2f2 "A"f2ef | "D"e2d2 "Bm"d2cd | "Em"c2B2 "E7"Bcde | "A"f2e2 A3A |\
"D"A2f2 "A/c#"f2ef | "C"e2d2 "Bm"d2cd | "Em"c2B2 "A7"f2e2 | "D"d4 d2d2 :|
|:\
"D"A2A2 "A7"defd | "D"A2A2 "Bm"defd | "Em"agfg e2e2 | "Em"agfg "A7"e2e2 |\
"D"A2A2 "A7"defd | "Bm"A2A2 defd | "Em"agfg "A7"egfe | "D"d2f2 d2d2 :|
